svg/blobs-icons/no-decorations/campfire.svg

<svg xmlns="http://www.w3.org/2000/svg" xmlns:xlink="http://www.w3.org/1999/xlink" preserveAspectRatio="xMidYMid" width="218" height="212" viewBox="0 0 218 212"><defs><style>.cls-3{fill:#fbb713}.cls-4{fill:#020403;opacity:.35}.cls-7{fill:#fff}.cls-8{fill:#020403;opacity:.25}.cls-9{fill:#ff3a2f}.cls-15{fill:#142a3b}</style></defs><g id="group-170svg"><path d="M60.375 147.727s-54.573-23.899.0-112.971c0 0 5.16200000000001 34.76 15.746 43.45.0.0 16.041-43.45 36.124-43.45.0.0 14.036 4.344 1.85199999999999-34.76.0.0 16.172 8.689 22.632 41.277.0.0 4.40299999999999 10.862.0 32.587.0.0 28.878-13.035 28.531-49.967.0.0 50.32 65.175.00300000000001432 123.834-32.764 21.472-67.694 21.789-104.888.0z" id="path-1" class="cls-3" fill-rule="evenodd"/><path d="M115.342 34.469C117.509 39.584 119.489 45.699 120.957 53.102c0 0 4.40300000000001 10.863.0 32.589.0.0 8.33199999999999-3.816 15.992-13.029C140.945 51.754 136.729 41.273 136.729 41.273 130.269 8.685 114.097-.005 114.097-.005 122.295 26.308 118.623 32.94 115.342 34.469z" id="path-2" class="cls-4" fill-rule="evenodd"/><path d="M60.348 90.035s3.696-9.994 9.752-20.396C63.585 56.231 60.375 34.755 60.375 34.755c-5.463 8.916-9.788 17.15-13.228 24.802 2.508 10.83 6.88 25.289 13.201 30.478z" id="path-3" class="cls-4" fill-rule="evenodd"/><path d="M165.26 23.893C165.367 35.215 162.715 44.27 159.001 51.413 170.138 73.312 183.52 114.823 153.647 154.378 157.548 152.444 161.421 150.244 165.263 147.727 215.58 89.068 165.26 23.893 165.26 23.893z" id="path-4" class="cls-4" fill-rule="evenodd"/><path d="M62.891 141.997C62.084 141.997 61.271 141.729 60.598 141.175 49.266 131.87 44.119 99.162 43.57 95.462 43.277 93.489 44.639 91.65 46.615 91.357 48.572 91.062 50.425 92.424 50.722 94.4c1.382 9.288 6.675 34.793 14.465 41.189C66.73 136.855 66.954 139.133 65.687 140.676 64.971 141.546 63.935 141.997 62.891 141.997z" id="path-5" class="cls-7" fill-rule="evenodd"/><path d="M82.6 158.808s-30.837-13.503.0-63.833c0 0 2.91600000000001 19.642 8.896 24.551.0.0 9.06400000000001-24.551 20.412-24.551.0.0 7.931 2.45500000000001 1.047-19.641C112.955 75.334 122.093 80.243 125.743 98.658c0 0 2.48699999999999 6.137.0 18.413.0.0 16.316-7.365 16.121-28.234.0.0 28.433 36.827.00200000000000955 69.971-18.513 12.133-38.25 12.312-59.266.0z" id="path-6" class="cls-8" fill-rule="evenodd"/><path d="M86.065 157.235S63.079 147.171 86.064 109.653C86.064 109.653 88.239 124.294 92.696 127.955c0 0 6.756-18.302 15.215-18.302C107.911 109.653 113.823 111.484 108.691 95.013c0 0 6.812 3.66 9.533 17.386.0.0 1.85499999999999 4.575.0 13.725.0.0 12.163-5.49 12.017-21.045.0.0 21.195 27.45.00199999999998113 52.156C116.443 166.281 101.73 166.414 86.065 157.235z" id="path-7" class="cls-9" fill-rule="evenodd"/><path d="M108.472 109.709C109.187 111.602 109.833 113.797 110.338 116.342c0 0 1.854 4.57600000000001.0 13.726C110.338 130.068 115.277 127.82 118.823 122.167 119.514 115.683 118.224 112.399 118.224 112.399c-2.721-13.726-9.533-17.386-9.533-17.386C112.814 108.244 109.813 109.662 108.472 109.709z" id="path-8" class="cls-4" fill-rule="evenodd"/><path d="M130.242 105.079C130.29 110.233 128.976 114.262 127.212 117.372 131.87 127.39 136.337 144.88 122.357 161.18 122.153 161.312 121.945 161.401 121.741 161.529 124.609 160.433 127.45 159.066 130.243 157.235 151.436 132.529 130.242 105.079 130.242 105.079z" id="path-9" class="cls-4" fill-rule="evenodd"/><path d="M84.81 131.898S86.553 127.19 89.371 122.549C87.156 116.967 86.065 109.653 86.065 109.653 83.416 113.976 81.401 117.919 79.868 121.539 80.969 125.613 82.61 130.092 84.81 131.898z" id="path-10" class="cls-4" fill-rule="evenodd"/><path d="M90.004 156.931C89.764 156.931 89.518 156.882 89.281 156.778 89.123 156.708 73.466 149.562 79.291 126.971 79.542 126.004 80.533 125.422 81.492 125.672 82.459 125.921 83.041 126.906 82.791 127.874 77.758 147.389 90.207 153.232 90.739 153.47 91.647 153.878 92.059 154.944 91.656 155.854 91.355 156.528 90.697 156.931 90.004 156.931z" id="path-11" class="cls-7" fill-rule="evenodd"/><path d="M96.64 135.535C96.431 135.535 96.219 135.499 96.013 135.423 95.078 135.076 94.599 134.038 94.943 133.101 95.679 131.108 102.409 113.62 111.855 113.62 112.854 113.62 113.663 114.43 113.663 115.427 113.663 116.425 112.854 117.234 111.855 117.234c-5.867.0-11.878 12.678-13.52 17.12C98.066 135.084 97.373 135.535 96.64 135.535z" id="path-12" class="cls-7" fill-rule="evenodd"/><path d="M5.528 211.668s211.339-50.322 211.339-50.322-5.535-23.247-5.535-23.247S-.006 188.42-.006 188.42s5.534 23.248 5.534 23.248z" id="path-13" class="cls-15" fill-rule="evenodd"/><path d="M143.871 179.853S160.817 175.819 160.817 175.819s1.958-6.017 1.958-6.017-33.746-10.98-33.746-10.98-28.753 6.846-28.753 6.846 43.595 14.185 43.595 14.185z" id="path-14" class="cls-4" fill-rule="evenodd"/><path d="M90.734 190.628S118.307 184.062 118.307 184.062 119.007 181.911 119.007 181.911s-38.739-12.605-38.739-12.605-31.795 7.571-31.795 7.571 42.261 13.751 42.261 13.751z" id="path-15" class="cls-4" fill-rule="evenodd"/><path d="M211.332 211.668S-.006 161.346-.006 161.346s5.534-23.247 5.534-23.247S216.867 188.42 216.867 188.42s-5.535 23.248-5.535 23.248z" id="path-16" class="cls-15" fill-rule="evenodd"/></g></svg>

<svg xmlns="http://www.w3.org/2000/svg" xmlns:xlink="http://www.w3.org/1999/xlink" preserveAspectRatio="xMidYMid" width="218" height="212" viewBox="0 0 218 212">
  <defs>
    <style>

      .cls-3 {
        fill: #fbb713;
      }

      .cls-4 {
        fill: #020403;
        opacity: 0.35;
      }

      .cls-7 {
        fill: #ffffff;
      }

      .cls-8 {
        fill: #020403;
        opacity: 0.25;
      }

      .cls-9 {
        fill: #ff3a2f;
      }

      .cls-15 {
        fill: #142a3b;
      }
    </style>
  </defs>
  <g id="group-170svg">
    <path d="M60.375,147.727 C60.375,147.727 5.802,123.828 60.375,34.756 C60.375,34.756 65.537,69.516 76.121,78.206 C76.121,78.206 92.162,34.756 112.245,34.756 C112.245,34.756 126.281,39.100 114.097,-0.004 C114.097,-0.004 130.269,8.685 136.729,41.273 C136.729,41.273 141.132,52.135 136.729,73.860 C136.729,73.860 165.607,60.825 165.260,23.893 C165.260,23.893 215.580,89.068 165.263,147.727 C132.499,169.199 97.569,169.516 60.375,147.727 Z" id="path-1" class="cls-3" fill-rule="evenodd"/>
    <path d="M115.342,34.469 C117.509,39.584 119.489,45.699 120.957,53.102 C120.957,53.102 125.360,63.965 120.957,85.691 C120.957,85.691 129.289,81.875 136.949,72.662 C140.945,51.754 136.729,41.273 136.729,41.273 C130.269,8.685 114.097,-0.005 114.097,-0.005 C122.295,26.308 118.623,32.940 115.342,34.469 Z" id="path-2" class="cls-4" fill-rule="evenodd"/>
    <path d="M60.348,90.035 C60.348,90.035 64.044,80.041 70.100,69.639 C63.585,56.231 60.375,34.755 60.375,34.755 C54.912,43.671 50.587,51.905 47.147,59.557 C49.655,70.387 54.027,84.846 60.348,90.035 Z" id="path-3" class="cls-4" fill-rule="evenodd"/>
    <path d="M165.260,23.893 C165.367,35.215 162.715,44.270 159.001,51.413 C170.138,73.312 183.520,114.823 153.647,154.378 C157.548,152.444 161.421,150.244 165.263,147.727 C215.580,89.068 165.260,23.893 165.260,23.893 Z" id="path-4" class="cls-4" fill-rule="evenodd"/>
    <path d="M62.891,141.997 C62.084,141.997 61.271,141.729 60.598,141.175 C49.266,131.870 44.119,99.162 43.570,95.462 C43.277,93.489 44.639,91.650 46.615,91.357 C48.572,91.062 50.425,92.424 50.722,94.400 C52.104,103.688 57.397,129.193 65.187,135.589 C66.730,136.855 66.954,139.133 65.687,140.676 C64.971,141.546 63.935,141.997 62.891,141.997 Z" id="path-5" class="cls-7" fill-rule="evenodd"/>
    <path d="M82.600,158.808 C82.600,158.808 51.763,145.305 82.600,94.975 C82.600,94.975 85.516,114.617 91.496,119.526 C91.496,119.526 100.560,94.975 111.908,94.975 C111.908,94.975 119.839,97.430 112.955,75.334 C112.955,75.334 122.093,80.243 125.743,98.658 C125.743,98.658 128.230,104.795 125.743,117.071 C125.743,117.071 142.059,109.706 141.864,88.837 C141.864,88.837 170.297,125.664 141.866,158.808 C123.353,170.941 103.616,171.120 82.600,158.808 Z" id="path-6" class="cls-8" fill-rule="evenodd"/>
    <path d="M86.065,157.235 C86.065,157.235 63.079,147.171 86.064,109.653 C86.064,109.653 88.239,124.294 92.696,127.955 C92.696,127.955 99.452,109.653 107.911,109.653 C107.911,109.653 113.823,111.484 108.691,95.013 C108.691,95.013 115.503,98.673 118.224,112.399 C118.224,112.399 120.079,116.974 118.224,126.124 C118.224,126.124 130.387,120.634 130.241,105.079 C130.241,105.079 151.436,132.529 130.243,157.235 C116.443,166.281 101.730,166.414 86.065,157.235 Z" id="path-7" class="cls-9" fill-rule="evenodd"/>
    <path d="M108.472,109.709 C109.187,111.602 109.833,113.797 110.338,116.342 C110.338,116.342 112.192,120.918 110.338,130.068 C110.338,130.068 115.277,127.820 118.823,122.167 C119.514,115.683 118.224,112.399 118.224,112.399 C115.503,98.673 108.691,95.013 108.691,95.013 C112.814,108.244 109.813,109.662 108.472,109.709 Z" id="path-8" class="cls-4" fill-rule="evenodd"/>
    <path d="M130.242,105.079 C130.290,110.233 128.976,114.262 127.212,117.372 C131.870,127.390 136.337,144.880 122.357,161.180 C122.153,161.312 121.945,161.401 121.741,161.529 C124.609,160.433 127.450,159.066 130.243,157.235 C151.436,132.529 130.242,105.079 130.242,105.079 Z" id="path-9" class="cls-4" fill-rule="evenodd"/>
    <path d="M84.810,131.898 C84.810,131.898 86.553,127.190 89.371,122.549 C87.156,116.967 86.065,109.653 86.065,109.653 C83.416,113.976 81.401,117.919 79.868,121.539 C80.969,125.613 82.610,130.092 84.810,131.898 Z" id="path-10" class="cls-4" fill-rule="evenodd"/>
    <path d="M90.004,156.931 C89.764,156.931 89.518,156.882 89.281,156.778 C89.123,156.708 73.466,149.562 79.291,126.971 C79.542,126.004 80.533,125.422 81.492,125.672 C82.459,125.921 83.041,126.906 82.791,127.874 C77.758,147.389 90.207,153.232 90.739,153.470 C91.647,153.878 92.059,154.944 91.656,155.854 C91.355,156.528 90.697,156.931 90.004,156.931 Z" id="path-11" class="cls-7" fill-rule="evenodd"/>
    <path d="M96.640,135.535 C96.431,135.535 96.219,135.499 96.013,135.423 C95.078,135.076 94.599,134.038 94.943,133.101 C95.679,131.108 102.409,113.620 111.855,113.620 C112.854,113.620 113.663,114.430 113.663,115.427 C113.663,116.425 112.854,117.234 111.855,117.234 C105.988,117.234 99.977,129.912 98.335,134.354 C98.066,135.084 97.373,135.535 96.640,135.535 Z" id="path-12" class="cls-7" fill-rule="evenodd"/>
    <path d="M5.528,211.668 C5.528,211.668 216.867,161.346 216.867,161.346 C216.867,161.346 211.332,138.099 211.332,138.099 C211.332,138.099 -0.006,188.420 -0.006,188.420 C-0.006,188.420 5.528,211.668 5.528,211.668 Z" id="path-13" class="cls-15" fill-rule="evenodd"/>
    <path d="M143.871,179.853 C143.871,179.853 160.817,175.819 160.817,175.819 C160.817,175.819 162.775,169.802 162.775,169.802 C162.775,169.802 129.029,158.822 129.029,158.822 C129.029,158.822 100.276,165.668 100.276,165.668 C100.276,165.668 143.871,179.853 143.871,179.853 Z" id="path-14" class="cls-4" fill-rule="evenodd"/>
    <path d="M90.734,190.628 C90.734,190.628 118.307,184.062 118.307,184.062 C118.307,184.062 119.007,181.911 119.007,181.911 C119.007,181.911 80.268,169.306 80.268,169.306 C80.268,169.306 48.473,176.877 48.473,176.877 C48.473,176.877 90.734,190.628 90.734,190.628 Z" id="path-15" class="cls-4" fill-rule="evenodd"/>
    <path d="M211.332,211.668 C211.332,211.668 -0.006,161.346 -0.006,161.346 C-0.006,161.346 5.528,138.099 5.528,138.099 C5.528,138.099 216.867,188.420 216.867,188.420 C216.867,188.420 211.332,211.668 211.332,211.668 Z" id="path-16" class="cls-15" fill-rule="evenodd"/>
  </g>
</svg>
